X:7135
T:Holly Bush, The
C:Finbarr Dwyer
R:reel
S:BBC recording of Feakle Session 1987: Noel Hill & Tony Linnane
H:Usually in Dmix, #468
Z:id:hn-reel-695
M:C|
K:Emix
B2GB EBGB|Bcef geec|dA~A2 FA~A2|dfed BAFA|
B2GB EBGB|Bcef geec|dAAB dfed|BFAF EFGA:|
|:Bee^d efga|beef edBc|dA~A2 defa|bafe dBAd|
Bee^d efga|beef edBc|~d3d dBAd|1 B2AF E3A:|2 B2AF EFGA||
